X:22
T:Rakes of Kildare, The
R:jig
E:11
I:speed 350
M:6/8
K:ADor
G|EAA AGA|Bcd e2f|~g3 ege|dBA G3|\
EAA AGA|Bcd e2f|~g3 edB| A3 A2:|*
a|aea aea|aga b2a|~g3 ege|dBA G2a|\
aea aea|aga b2a|~g3 edB| A3 A2 a|*
aea aea|aga b2a|~g3 ege|dBG BAG|\
EAA AGA|Bcd e2f|~g3 edB| A3 A2||**
<end>
<start>
